!!!!SEGMENT: Distler_Jahrkreis_30_Wach-auf-meins-Herzens-Schoene_3v.krn
!!!COM: Distler, Hugo
!!!CDT: 1908-1942
!!!OPR@@DE: Der Jahrkreis
!!!OPR@EN: The Year Cycle
!!!OTL@@DE: Wach auf, mein's Herzens Schoene
!!!OTL@EN: Awake, my touching beauty
!!!OPS: 5
!!!ONM: 30
**kern	**text	**text	**kern	**text	**text	**kern	**text	**text
*part3	*part3	*part3	*part2	*part2	*part2	*part1	*part1	*part1
*staff3	*staff3	*staff3	*staff2	*staff2	*staff2	*staff1	*staff1	*staff1
*Ialto	*	*	*Isoprn	*	*	*Isoprn	*	*
*clefG2	*	*	*clefG2	*	*	*clefG2	*	*
*k[b-]	*	*	*k[b-]	*	*	*k[b-]	*	*
*MM120	*	*	*MM120	*	*	*MM120	*	*
*M3/4	*	*	*M3/4	*	*	*M3/4	*	*
=1	=1	=1	=1	=1	=1	=1	=1	=1
2.r	.	.	4f	Wach'	und	4cc	Wach'	und
.	.	.	4f	auf,	hoer'	(4.ff	auf,_	hoer'_
.	.	.	4cc	mein's	das	.	.	.
.	.	.	.	.	.	8ee)	.	.
=2	=2	=2	=2	=2	=2	=2	=2	=2
4A	Wach'	und	(4.a	Her-	suess'_	4dd	mein's	das
4e	auf,	hoer'	.	.	.	(4.cc	Her-	suess'_
.	.	.	8g)	.	.	.	.	.
4e	mein's	das	4f	zens	Ge-	.	.	.
.	.	.	.	.	.	8dd)	.	.
=3	=3	=3	=3	=3	=3	=3	=3	=3
4d	Her-	suess'	4g	Schoe-	toe-	(8ccL	zens	Ge-
.	.	.	.	.	.	8b-J)	.	.
4c	zens	Ge-	4a,	ne,	ne,	2a	Schoe-	toe-
[4f	Schoe-	toe-	4b-	du	das	.	.	.
=4	=4	=4	=4	=4	=4	=4	=4	=4
4f]	.	.	2cc	chri-	rein'	8a,	ne,	ne,
.	.	.	.	.	.	8a	du	das
4f,	ne,	ne,	.	.	.	(4.dd	chri-	rein'_
4g	du	das	4b-	sten-	Wort	.	.	.
.	.	.	.	.	.	8eeLL	.	.
!!LO:LB:g=original
=5	=5	=5	=5	=5	=5	=5	=5	=5
8d	chri-	rein'	(4a	li-	Got-	8.ff	.	.
8e	sten-	Wort	.	.	.	.	.	.
.	.	.	.	.	.	16eeJJ)	.	.
4.f	li-	Got-	4f)	.	.	8cc	sten-	Wort
.	.	.	.	.	.	4dd	li-	Got-
.	.	.	4g	che	tes	.	.	.
8e	che	tes	.	.	.	8dd	che	tes
=6	=6	=6	=6	=6	=6	=6	=6	=6
2.f	Schar,	klar,	2.a	Schar,	klar,	2.cc	Schar,	klar,
=7:|!	=7	=7	=7:|!	=7	=7	=7:|!	=7	=7
2.r	.	.	4cc	das	.	2.r	.	.
.	.	.	4cc	jetzt	.	.	.	.
.	.	.	4b-	so	.	.	.	.
=8	=8	=8	=8	=8	=8	=8	=8	=8
4f	das	.	2a	lieb-	.	2.r	.	.
4f	jetzt	.	.	.	.	.	.	.
4e	so	.	4g	lich	.	.	.	.
=9	=9	=9	=9	=9	=9	=9	=9	=9
(4.d	lieb-	.	(4.f	klin-	.	4dd	das	.
.	.	.	.	.	.	4dd	jetzt	.
8e	.	.	8g	.	.	.	.	.
4f)	.	.	4a	.	.	4cc	so	.
!!LO:LB:g=original
=10	=10	=10	=10	=10	=10	=10	=10	=10
4B-	lich	.	8gL	.	.	(4..b-	lieb-	.
.	.	.	8fJ	.	.	.	.	.
4c	klin-	.	4.e	.	.	.	.	.
.	.	.	.	.	.	16cc)	.	.
4c,	get:	.	.	.	.	(8.aLL	lich	.
.	.	.	8d)	.	.	.	.	.
.	.	.	.	.	.	16b-JJ)	.	.
=11	=11	=11	=11	=11	=11	=11	=11	=11
4e	es	.	2.c,	get:	.	4g	klin-	.
4e	leucht't	.	.	.	.	4g,	get:	.
4g	recht,	.	.	.	.	4cc	es	.
=12	=12	=12	=12	=12	=12	=12	=12	=12
2d	als	.	4f	es	.	(4.a	leucht't_	.
.	.	.	4f	leucht't	.	.	.	.
.	.	.	.	.	.	8b-L	.	.
4c	der	.	[4f	recht,_	.	8cc	.	.
.	.	.	.	.	.	8aJ	.	.
=13	=13	=13	=13	=13	=13	=13	=13	=13
(4.B-	hel-	.	4f]	.	.	2dd)	.	.
.	.	.	4.g	als	.	.	.	.
8cL	.	.	.	.	.	.	.	.
8d	.	.	.	.	.	4cc	recht,	.
8eJ	.	.	8g	der	.	.	.	.
=14	=14	=14	=14	=14	=14	=14	=14	=14
2f	.	.	(8aLL	hel-	.	8cc	als	.
.	.	.	16b-	.	.	8cc	der	.
.	.	.	16cc	.	.	.	.	.
.	.	.	8b-	.	.	(8ddL	hel-	.
.	.	.	8a	.	.	8eeJ	.	.
4A	.	.	8g	.	.	[4ff	.	.
.	.	.	8fJJ	.	.	.	.	.
!!LO:LB:g=original
=15	=15	=15	=15	=15	=15	=15	=15	=15
4c)	.	.	4g)	.	.	4ff])	.	.
4c	le	.	4g	le	.	4ee	le	.
4f,	Tag,	.	4f,	Tag,	.	[4ff	Tag,_	.
=16	=16	=16	=16	=16	=16	=16	=16	=16
4d	durch	.	4b-	durch	.	4ff]	.	.
(4.c	Got-	.	4a	Got-	.	4r	.	.
.	.	.	4f	tes	.	4b-	durch	.
8dL	.	.	.	.	.	.	.	.
=17	=17	=17	=17	=17	=17	=17	=17	=17
8c	.	.	4d	Guet'	.	2a	Got-	.
8B-	.	.	.	.	.	.	.	.
8A	.	.	2c	her-	.	.	.	.
8GJ)	.	.	.	.	.	.	.	.
4A	tes	.	.	.	.	4g	tes	.
=18	=18	=18	=18	=18	=18	=18	=18	=18
2B-	Guet'	.	(4.d	drin-	.	(4.f	Guet'_	.
.	.	.	8e	.	.	8g)	.	.
4F	her-	.	[4f	.	.	4a	her-	.
=19	=19	=19	=19	=19	=19	=19	=19	=19
2.c	drin-	.	8fL]	.	.	2.g	drin-	.
.	.	.	8fJ	.	.	.	.	.
.	.	.	2e)	.	.	.	.	.
=20	=20	=20	=20	=20	=20	=20	=20	=20
2.f	get.	.	2.f	get.	.	2.f	get.	.
!!LO:LB:g=original
=21||	=21||	=21||	=21||	=21||	=21||	=21||	=21||	=21||
*M3/4	*	*	*M3/4	*	*	*	*	*
2.r	.	.	4f	Kei'm	vor	2.r	.	.
.	.	.	4f	Gleis-	Men-	.	.	.
.	.	.	4cc	ner	schen-	.	.	.
.	.	.	.	.	.	.	.	.
=22	=22	=22	=22	=22	=22	=22	=22	=22
4A	Kei'm	vor	(4.a	tu_	lehr'_	2.r	.	.
4e	Gleis-	Men-	.	.	.	.	.	.
.	.	.	8g)	.	.	.	.	.
4e	ner	schen-	4f	mehr	hab'	.	.	.
.	.	.	.	.	.	.	.	.
=23	=23	=23	=23	=23	=23	=23	=23	=23
4d	tu	lehr'	4g	trau-	Grau-	2.r	.	.
.	.	.	.	.	.	.	.	.
4c	mehr	hab'	4a,	en,	en,	.	.	.
[4f	trau-	Grau-	4b-	wie	wie	.	.	.
=24	=24	=24	=24	=24	=24	=24	=24	=24
4f]	.	.	2cc	viel'	gut	2.r	.	.
.	.	.	.	.	.	.	.	.
4f,	en,	en,	.	.	.	.	.	.
4g	wie	wie	4b-	ihr'r	sie	.	.	.
.	.	.	.	.	.	.	.	.
=25	=25	=25	=25	=25	=25	=25	=25	=25
8d	viel'	gut	(4a	im-	im-	2.r	.	.
8e	ihr'r	sie	.	.	.	.	.	.
.	.	.	.	.	.	.	.	.
4.f	im-	im-	4f)	.	.	.	.	.
.	.	.	.	.	.	.	.	.
.	.	.	4g	mer	mer	.	.	.
8e	mer	mer	.	.	.	.	.	.
=26	=26	=26	=26	=26	=26	=26	=26	=26
2.f	seind,	scheint;	2.a	seind,	scheint;	2.r	.	.
!!LO:LB:g=original
=27:|!	=27	=27	=27:|!	=27	=27	=27:|!	=27	=27
2.r	.	.	4cc	glaub'	.	2.r	.	.
.	.	.	4cc	dem	.	.	.	.
.	.	.	4b-	Wort	.	.	.	.
=28	=28	=28	=28	=28	=28	=28	=28	=28
4f	glaub'	.	2a	Gotts'	.	2.r	.	.
4f	dem	.	.	.	.	.	.	.
4e	Wort	.	4g	al-	.	.	.	.
=29	=29	=29	=29	=29	=29	=29	=29	=29
(4.d	Gott's_	.	(4.f	lei-	.	2.r	.	.
.	.	.	.	.	.	.	.	.
8e	.	.	8g	.	.	.	.	.
4f)	.	.	4a	.	.	.	.	.
=30	=30	=30	=30	=30	=30	=30	=30	=30
4B-	al-	.	8gL	.	.	2.r	.	.
.	.	.	8fJ	.	.	.	.	.
4c	lei-	.	4.e	.	.	.	.	.
.	.	.	.	.	.	.	.	.
4c,	ne,	.	.	.	.	.	.	.
.	.	.	8d)	.	.	.	.	.
.	.	.	.	.	.	.	.	.
=31	=31	=31	=31	=31	=31	=31	=31	=31
4e	da-	.	2.c,	ne,	.	2.r	.	.
4e	rin	.	.	.	.	.	.	.
4g	Gott	.	.	.	.	.	.	.
=32	=32	=32	=32	=32	=32	=32	=32	=32
2d	uns	.	4f	dar-	.	2.r	.	.
.	.	.	4f	in	.	.	.	.
.	.	.	.	.	.	.	.	.
4c	ver-	.	[4f	Gott,_	.	.	.	.
.	.	.	.	.	.	.	.	.
=33	=33	=33	=33	=33	=33	=33	=33	=33
(4.B-	kuen-	.	4f]	.	.	2.r	.	.
.	.	.	4.g	uns	.	.	.	.
8cL	.	.	.	.	.	.	.	.
8d	.	.	.	.	.	.	.	.
8eJ	.	.	8g	ver-	.	.	.	.
!!LO:LB:g=original
=34	=34	=34	=34	=34	=34	=34	=34	=34
2f	.	.	(8aLL	kuen-	.	2.r	.	.
.	.	.	16b-	.	.	.	.	.
.	.	.	16cc	.	.	.	.	.
.	.	.	8b-	.	.	.	.	.
.	.	.	8a	.	.	.	.	.
4A	.	.	8g	.	.	.	.	.
.	.	.	8fJJ	.	.	.	.	.
=35	=35	=35	=35	=35	=35	=35	=35	=35
4c)	.	.	4g)	.	.	2.r	.	.
4c	det	.	4g	det	.	.	.	.
4f,	hat,	.	4f,	hat	.	.	.	.
=36	=36	=36	=36	=36	=36	=36	=36	=36
4d	den	.	4b-	den	.	2.r	.	.
(4.c	gu-	.	4a	gu-	.	.	.	.
.	.	.	4f	ten	.	.	.	.
8dL	.	.	.	.	.	.	.	.
=37	=37	=37	=37	=37	=37	=37	=37	=37
8c	.	.	4d	Wil-	.	2.r	.	.
8B-	.	.	.	.	.	.	.	.
8A	.	.	2c	len	.	.	.	.
8GJ)	.	.	.	.	.	.	.	.
4A	ten	.	.	.	.	.	.	.
=38	=38	=38	=38	=38	=38	=38	=38	=38
2B-	Wil-	.	(4.d	sei-	.	2.r	.	.
.	.	.	8e	.	.	.	.	.
4F	len	.	[4f	.	.	.	.	.
=39	=39	=39	=39	=39	=39	=39	=39	=39
2.c	sei-	.	8fL]	.	.	2.r	.	.
.	.	.	8fJ	.	.	.	.	.
.	.	.	2e)	.	.	.	.	.
=40	=40	=40	=40	=40	=40	=40	=40	=40
2.f	ne.	.	2.f	ne.	.	2.r	.	.
=||	==	==	=||	==	==	=||	==	==
*-	*-	*-	*-	*-	*-	*-	*-	*-
!!!YOR: Bärenreiter-Ausgabe 676
!!!YOY: 1933
!!!EFL: 30/52
!!!URL-github: https://github.com/LucasHofmann/distler/blob/main/Jahrkreis/Distler_Jahrkreis_30_Wach-auf-meins-Herzens-Schoene.krn
!!!URL-pdf: https://imslp.eu/files/imglnks/euimg/7/7d/IMSLP834545-PMLP518834-5-jahrkreis-EA--original-paper-600dpi.pdf#page=56 First edition, Kassel: Bärenreiter, 1933. Plate BA 676.
!!!URL-imslp: https://imslp.org/wiki/Der_Jahrkreis,_Op.5_(Distler,_Hugo)#IMSLP834545
!!!system-decoration: [(s1,s2,s3)]
!!!ENC: Lucas Hofmann
!!!END: 2023/11/12
!!!title: @{OPR@@DE}, Op. @{OPS}, Nr. @{ONM}. <i>@{OTL@@DE}</i>